assets/svg/single/social-proof-stars.svg

<svg width="70" height="12" viewBox="0 0 70 12" fill="none" xmlns="http://www.w3.org/2000/svg">
<path d="M5.76089 0.179417C5.87905 -0.0598057 6.07217 -0.0598057 6.19033 0.179417L7.68025 3.19809C7.79841 3.43731 8.11115 3.66464 8.37512 3.70298L11.7065 4.18822C11.9707 4.22655 12.0304 4.41046 11.8392 4.59679L9.42857 6.94656C9.23738 7.13289 9.11802 7.50046 9.16314 7.76346L9.73209 11.0813C9.77721 11.3443 9.62072 11.4578 9.38465 11.3338L6.40505 9.76628C6.16874 9.64206 5.78224 9.64206 5.54593 9.76628L2.56656 11.3326C2.33025 11.4569 2.17401 11.3433 2.21913 11.0801L2.78808 7.76224C2.8332 7.49924 2.71383 7.13143 2.52265 6.94534L0.111984 4.59558C-0.0792001 4.40924 -0.0195157 4.22558 0.244697 4.187L3.5761 3.70177C3.84032 3.66343 4.15305 3.4361 4.27097 3.19687L5.76089 0.179417Z" fill="#FFBF1C"/>
<path d="M20.2731 0.179417C20.3913 -0.0598057 20.5844 -0.0598057 20.7025 0.179417L22.1925 3.19809C22.3106 3.43731 22.6234 3.66464 22.8873 3.70298L26.2187 4.18822C26.4829 4.22655 26.5426 4.41046 26.3514 4.59679L23.9408 6.94656C23.7496 7.13289 23.6302 7.50046 23.6754 7.76346L24.2443 11.0813C24.2894 11.3443 24.1329 11.4578 23.8969 11.3338L20.9173 9.76628C20.6809 9.64206 20.2944 9.64206 20.0581 9.76628L17.0788 11.3326C16.8425 11.4569 16.6862 11.3433 16.7313 11.0801L17.3003 7.76224C17.3454 7.49924 17.226 7.13143 17.0349 6.94534L14.6242 4.59558C14.433 4.40924 14.4927 4.22558 14.7569 4.187L18.0883 3.70177C18.3525 3.66343 18.6653 3.4361 18.7832 3.19687L20.2731 0.179417Z" fill="#FFBF1C"/>
<path d="M34.7853 0.179417C34.9034 -0.0598057 35.0966 -0.0598057 35.2147 0.179417L36.7046 3.19809C36.8228 3.43731 37.1355 3.66464 37.3995 3.70298L40.7309 4.18822C40.9951 4.22655 41.0548 4.41046 40.8636 4.59679L38.453 6.94656C38.2618 7.13289 38.1424 7.50046 38.1875 7.76346L38.7565 11.0813C38.8016 11.3443 38.6451 11.4578 38.409 11.3338L35.4294 9.76628C35.1931 9.64206 34.8066 9.64206 34.5703 9.76628L31.5909 11.3326C31.3546 11.4569 31.1984 11.3433 31.2435 11.0801L31.8125 7.76224C31.8576 7.49924 31.7382 7.13143 31.547 6.94534L29.1364 4.59558C28.9452 4.40924 29.0049 4.22558 29.2691 4.187L32.6005 3.70177C32.8647 3.66343 33.1774 3.4361 33.2953 3.19687L34.7853 0.179417Z" fill="#FFBF1C"/>
<path d="M49.2975 0.179417C49.4156 -0.0598057 49.6088 -0.0598057 49.7269 0.179417L51.2168 3.19809C51.335 3.43731 51.6477 3.66464 51.9117 3.70298L55.2431 4.18822C55.5073 4.22655 55.567 4.41046 55.3758 4.59679L52.9652 6.94656C52.774 7.13289 52.6546 7.50046 52.6997 7.76346L53.2687 11.0813C53.3138 11.3443 53.1573 11.4578 52.9212 11.3338L49.9416 9.76628C49.7053 9.64206 49.3188 9.64206 49.0825 9.76628L46.1032 11.3326C45.8668 11.4569 45.7106 11.3433 45.7557 11.0801L46.3247 7.76224C46.3698 7.49924 46.2504 7.13143 46.0592 6.94534L43.6486 4.59558C43.4574 4.40924 43.5171 4.22558 43.7813 4.187L47.1127 3.70177C47.3769 3.66343 47.6896 3.4361 47.8076 3.19687L49.2975 0.179417Z" fill="#FFBF1C"/>
<path d="M63.8097 0.179417C63.9278 -0.0598057 64.1209 -0.0598057 64.2391 0.179417L65.729 3.19809C65.8472 3.43731 66.1599 3.66464 66.4239 3.70298L69.7553 4.18822C70.0195 4.22655 70.0792 4.41046 69.888 4.59679L67.4773 6.94656C67.2862 7.13289 67.1668 7.50046 67.2119 7.76346L67.7809 11.0813C67.826 11.3443 67.6695 11.4578 67.4334 11.3338L64.4538 9.76628C64.2175 9.64206 63.831 9.64206 63.5947 9.76628L60.6153 11.3326C60.379 11.4569 60.2228 11.3433 60.2679 11.0801L60.8369 7.76224C60.882 7.49924 60.7626 7.13143 60.5714 6.94534L58.1608 4.59558C57.9696 4.40924 58.0293 4.22558 58.2935 4.187L61.6249 3.70177C61.8891 3.66343 62.2018 3.4361 62.3197 3.19687L63.8097 0.179417Z" fill="#FFBF1C"/>
</svg>

<svg width="70" height="12" fill="none" xmlns="http://www.w3.org/2000/svg"><path d="M5.76.18c.12-.24.312-.24.43 0l1.49 3.018c.118.24.431.467.695.505l3.332.485c.264.039.323.222.132.409l-2.41 2.35c-.192.186-.311.553-.266.816l.57 3.318c.044.263-.112.377-.348.253l-2.98-1.568a1.037 1.037 0 0 0-.86 0l-2.978 1.567c-.237.124-.393.01-.348-.253l.57-3.318a1.036 1.036 0 0 0-.266-.817L.112 4.595c-.191-.186-.132-.37.133-.408l3.331-.485c.264-.039.577-.266.695-.505L5.761.179ZM20.273.18c.118-.24.311-.24.43 0l1.49 3.018c.118.24.43.467.694.505l3.332.485c.264.039.324.222.132.409l-2.41 2.35c-.191.186-.31.553-.266.816l.57 3.318c.044.263-.112.377-.348.253l-2.98-1.568a1.037 1.037 0 0 0-.859 0l-2.98 1.567c-.235.124-.392.01-.347-.253l.57-3.318a1.037 1.037 0 0 0-.266-.817l-2.41-2.35c-.192-.186-.132-.37.132-.408l3.331-.485c.264-.039.577-.266.695-.505l1.49-3.018ZM34.785.18c.118-.24.312-.24.43 0l1.49 3.018c.118.24.43.467.695.505l3.33.485c.265.039.325.222.134.409l-2.411 2.35c-.191.186-.31.553-.266.816l.57 3.318c.045.263-.112.377-.348.253l-2.98-1.568a1.037 1.037 0 0 0-.859 0l-2.98 1.567c-.235.124-.392.01-.346-.253l.569-3.318a1.036 1.036 0 0 0-.266-.817l-2.41-2.35c-.192-.186-.132-.37.132-.408l3.331-.485c.265-.039.577-.266.695-.505l1.49-3.018ZM49.297.18c.119-.24.312-.24.43 0l1.49 3.018c.118.24.43.467.695.505l3.331.485c.264.039.324.222.133.409l-2.41 2.35c-.192.186-.311.553-.266.816l.569 3.318c.045.263-.112.377-.348.253l-2.98-1.568a1.037 1.037 0 0 0-.858 0l-2.98 1.567c-.236.124-.392.01-.347-.253l.569-3.318a1.036 1.036 0 0 0-.266-.817l-2.41-2.35c-.192-.186-.132-.37.132-.408l3.332-.485c.264-.039.577-.266.695-.505l1.49-3.018ZM63.81.18c.118-.24.31-.24.43 0l1.489 3.018c.118.24.43.467.695.505l3.331.485c.264.039.324.222.133.409l-2.41 2.35c-.192.186-.311.553-.266.816l.569 3.318c.045.263-.112.377-.348.253l-2.98-1.568a1.037 1.037 0 0 0-.858 0l-2.98 1.567c-.236.124-.392.01-.347-.253l.569-3.318a1.036 1.036 0 0 0-.266-.817l-2.41-2.35c-.191-.186-.132-.37.133-.408l3.33-.485c.265-.039.578-.266.696-.505L63.81.179Z" fill="#FFBF1C"/></svg>
